X:4525
T:My Mind Will Never Be Easy
O:england
M:9/8
L:1/8
S:From Dervish: Playing with Fire
R:Slip Jig
K:G
gf | edB B2A G2A | Bdd d2B dgf | edB B2A G2A | Bee e2d egf |
edB B2A G2A | Bdd d2B d2B | def gdB G2A | Bee e2d e2B |
def gaf g2d | Bdd d2B d2B | d (3efg age dBA | Bee e2d e2B |
def gaf g2d | Bdd d2B d2B | d (3efg age dBA | Bee e2d e3 ||


